X: 34157
T: Reel For Éimhear
R: reel
M: 4/4
K: Dmixolydian
DEFA d3e|f2ge d^cAB|c2cB cdef|gged ^ceA2|
d2AG FGAB|c3d cdeg|fdgb a2ed|^cAGB ADD2:|
ded^c A2"^2""_1"[ea]g|f2ed eaag|edef geag|e2dB ^ceA2|
[1 dedc ABAG|FDE/F/G ABce|defe d^cAd|^cAGE EDD2:|
[2 d2DE =FGAc|BGBd ^ceag|f2 g2 aged|^ceAG FDD2||

